; generated by Slic3r 0.9.9 on 2013-12-07 at 01:51:03

; layer_height = 0.15
; perimeters = 2
; top_solid_layers = 4
; bottom_solid_layers = 3
; fill_density = 0.75
; perimeter_speed = 90
; infill_speed = 100
; travel_speed = 150
; nozzle_diameter = 0.35
; filament_diameter = 2.89
; extrusion_multiplier = 1
; perimeters extrusion width = 0.32mm
; infill extrusion width = 0.35mm
; solid infill extrusion width = 0.32mm
; top infill extrusion width = 0.30mm
; support material extrusion width = 0.32mm
; first layer extrusion width = 0.32mm

G21 ; set units to millimeters
M107
G28 ; home all axes
G90 ; use absolute coordinates
G92 E0
M82 ; use absolute distances for extrusion
G1 F2400.000 E-1.60000
G92 E0
G1 Z0.225 F9000.000
G1 X74.712 Y79.380
G1 F2400.000 E1.60000
G1 X75.852 Y78.420 F2700.000 E1.61649
G1 X78.512 Y76.480 E1.65291
G1 X79.242 Y76.020 E1.66245
G1 X80.412 Y75.380 E1.67720
G1 X80.902 Y75.140 E1.68324
G1 X83.802 Y73.850 E1.71835
G1 X84.852 Y73.480 E1.73067
G1 X87.722 Y72.760 E1.76340
G1 X88.382 Y72.660 E1.77078
G1 X89.042 Y72.620 E1.77810
G1 X98.372 Y72.630 E1.88131
G1 X99.042 Y72.700 E1.88876
G1 X99.692 Y72.830 E1.89609
G1 X102.232 Y73.480 E1.92510
G1 X103.262 Y73.840 E1.93717
G1 X106.202 Y75.150 E1.97277
G1 X106.672 Y75.380 E1.97856
G1 X107.842 Y76.020 E1.99331
G1 X108.362 Y76.340 E2.00007
G1 X129.432 Y90.530 E2.28108
G1 X130.072 Y91.020 E2.28999
G1 X131.092 Y91.910 E2.30497
G1 X131.342 Y92.160 E2.30888
G1 X131.572 Y92.430 E2.31280
G1 X132.002 Y93.000 E2.32070
G1 X132.862 Y94.290 E2.33785
G1 X133.182 Y94.830 E2.34480
G1 X133.452 Y95.390 E2.35167
G1 X133.672 Y95.970 E2.35854
G1 X133.922 Y96.910 E2.36930
G1 X134.332 Y98.950 E2.39231
G1 X134.392 Y99.580 E2.39931
G1 X134.392 Y100.200 E2.40617
G1 X134.372 Y100.510 E2.40961
G1 X134.242 Y101.470 E2.42033
G1 X133.842 Y103.490 E2.44311
G1 X133.652 Y104.120 E2.45039
G1 X133.532 Y104.430 E2.45406
G1 X133.242 Y105.020 E2.46133
G1 X133.072 Y105.310 E2.46505
G1 X132.682 Y105.950 E2.47334
G1 X132.072 Y106.860 E2.48546
G1 X131.382 Y107.720 E2.49766
G1 X130.572 Y108.570 E2.51065
G1 X129.912 Y109.130 E2.52022
G1 X108.422 Y123.590 E2.80676
G1 X107.392 Y124.240 E2.82023
G1 X106.522 Y124.700 E2.83112
G1 X103.682 Y125.970 E2.86553
G1 X102.852 Y126.280 E2.87533
G1 X100.702 Y126.920 E2.90015
G1 X100.192 Y127.050 E2.90597
G1 X96.892 Y127.750 E2.94329
G1 X96.332 Y127.820 E2.94953
G1 X95.772 Y127.850 E2.95573
G1 X91.312 Y127.850 E3.00507
G1 X90.752 Y127.820 E3.01128
G1 X90.192 Y127.750 E3.01752
G1 X86.892 Y127.050 E3.05484
G1 X86.382 Y126.920 E3.06066
G1 X84.242 Y126.280 E3.08537
G1 X83.442 Y125.980 E3.09482
G1 X80.542 Y124.690 E3.12993
G1 X79.692 Y124.240 E3.14057
G1 X78.662 Y123.590 E3.15404
G1 X78.332 Y123.360 E3.15849
G1 X75.642 Y121.410 E3.19525
G1 X74.962 Y120.840 E3.20506
G1 X73.932 Y119.830 E3.22102
G1 X71.612 Y117.250 E3.25940
G1 X71.192 Y116.740 E3.26671
G1 X70.722 Y116.100 E3.27549
G1 X70.312 Y115.460 E3.28390
G1 X68.472 Y112.260 E3.32474
G1 X68.132 Y111.600 E3.33295
G1 X67.852 Y110.960 E3.34068
G1 X67.412 Y109.710 E3.35534
G1 X66.282 Y106.190 E3.39623
G1 X66.162 Y105.670 E3.40214
G1 X66.082 Y105.140 E3.40806
G1 X65.942 Y103.860 E3.42231
G1 X65.762 Y101.920 E3.44386
G1 X65.662 Y101.070 E3.45333
G1 X65.612 Y100.420 E3.46054
G1 X65.602 Y99.710 E3.46840
G1 X65.632 Y99.240 E3.47361
G1 X66.082 Y94.910 E3.52176
G1 X66.192 Y94.270 E3.52895
G1 X66.422 Y93.360 E3.53933
G1 X66.632 Y92.690 E3.54710
G1 X67.692 Y89.460 E3.58470
G1 X68.042 Y88.590 E3.59508
G1 X68.562 Y87.570 E3.60774
G1 X70.432 Y84.320 E3.64922
G1 X70.992 Y83.510 E3.66011
G1 X71.512 Y82.860 E3.66932
G1 X74.072 Y79.990 E3.71187
G1 X74.677 Y79.413 E3.72111
G1 X74.922 Y79.620 F9000.000
G1 X76.042 Y78.680 F2700.000 E3.73729
G1 X78.702 Y76.740 E3.77371
G1 X79.402 Y76.300 E3.78285
G1 X80.572 Y75.660 E3.79760
G1 X81.032 Y75.430 E3.80329
G1 X83.932 Y74.140 E3.83840
G1 X84.932 Y73.790 E3.85013
G1 X87.782 Y73.070 E3.88264
G1 X88.412 Y72.980 E3.88968
G1 X89.042 Y72.950 E3.89666
G1 X98.042 Y72.950 E3.99622
G1 X98.672 Y72.980 E4.00320
G1 X99.302 Y73.070 E4.01024
G1 X99.612 Y73.140 E4.01375
G1 X102.152 Y73.790 E4.04276
G1 X103.132 Y74.140 E4.05427
G1 X106.072 Y75.440 E4.08983
G1 X106.512 Y75.660 E4.09527
G1 X107.682 Y76.300 E4.11002
G1 X108.182 Y76.610 E4.11653
G1 X129.252 Y90.800 E4.39754
G1 X129.862 Y91.260 E4.40599
G1 X130.612 Y91.910 E4.41697
G1 X131.102 Y92.380 E4.42448
G1 X131.732 Y93.180 E4.43575
G1 X132.752 Y94.720 E4.45618
G1 X133.032 Y95.250 E4.46281
G1 X133.262 Y95.790 E4.46930
G1 X133.442 Y96.360 E4.47592
G1 X133.712 Y97.420 E4.48802
G1 X133.962 Y98.710 E4.50255
G1 X134.012 Y99.000 E4.50581
G1 X134.062 Y99.590 E4.51236
G1 X134.072 Y100.190 E4.51900
G1 X134.052 Y100.480 E4.52221
G1 X133.862 Y101.810 E4.53707
G1 X133.602 Y103.100 E4.55163
G1 X133.442 Y103.710 E4.55861
G1 X133.232 Y104.300 E4.56554
G1 X132.962 Y104.870 E4.57251
G1 X132.802 Y105.140 E4.57598
G1 X132.252 Y106.030 E4.58756
G1 X131.812 Y106.680 E4.59624
G1 X131.152 Y107.500 E4.60789
G1 X130.542 Y108.140 E4.61767
G1 X129.932 Y108.700 E4.62683
G1 X129.492 Y109.030 E4.63291
G1 X108.402 Y123.220 E4.91410
G1 X107.212 Y123.970 E4.92966
G1 X106.392 Y124.400 E4.93991
G1 X103.552 Y125.670 E4.97432
G1 X102.752 Y125.970 E4.98377
G1 X100.602 Y126.610 E5.00859
G1 X100.132 Y126.730 E5.01395
G1 X97.102 Y127.380 E5.04824
G1 X96.572 Y127.470 E5.05418
G1 X96.042 Y127.520 E5.06007
G1 X91.042 Y127.520 E5.11538
G1 X90.512 Y127.470 E5.12127
G1 X89.982 Y127.380 E5.12722
G1 X86.952 Y126.730 E5.16150
G1 X86.472 Y126.610 E5.16697
G1 X84.332 Y125.970 E5.19168
G1 X83.572 Y125.690 E5.20064
G1 X80.672 Y124.400 E5.23575
G1 X79.872 Y123.970 E5.24580
G1 X78.522 Y123.100 E5.26357
G1 X75.832 Y121.150 E5.30032
G1 X75.182 Y120.610 E5.30967
G1 X74.172 Y119.620 E5.32531
G1 X71.852 Y117.040 E5.36370
G1 X71.452 Y116.550 E5.37069
G1 X70.982 Y115.910 E5.37948
G1 X70.592 Y115.300 E5.38749
G1 X68.742 Y112.100 E5.42837
G1 X68.432 Y111.470 E5.43614
G1 X68.152 Y110.830 E5.44387
G1 X67.922 Y110.240 E5.45087
G1 X66.662 Y106.350 E5.49611
G1 X66.482 Y105.610 E5.50453
G1 X66.402 Y105.110 E5.51013
G1 X66.262 Y103.830 E5.52438
G1 X66.082 Y101.890 E5.54593
G1 X66.002 Y101.250 E5.55307
G1 X65.922 Y100.170 E5.56505
G1 X65.922 Y99.720 E5.57002
G1 X65.952 Y99.280 E5.57490
G1 X66.342 Y95.410 E5.61793
G1 X66.402 Y94.970 E5.62284
G1 X66.512 Y94.330 E5.63003
G1 X66.722 Y93.460 E5.63993
G1 X66.932 Y92.810 E5.64748
G1 X67.992 Y89.560 E5.68530
G1 X68.332 Y88.740 E5.69512
G1 X68.842 Y87.730 E5.70764
G1 X70.712 Y84.490 E5.74902
G1 X71.242 Y83.710 E5.75945
G1 X71.762 Y83.060 E5.76866
G1 X74.312 Y80.210 E5.81096
G1 X74.887 Y79.654 E5.81982
G1 F2400.000 E4.21982
G92 E0
G1 X72.642 Y96.049 F9000.000
G1 F2400.000 E1.60000
G1 X114.455 Y96.049 F1800.000 E2.06254
G1 X114.351 Y95.404 E2.06977
G1 X72.745 Y95.404 E2.53002
G1 X72.955 Y94.759 E2.53753
G1 X114.141 Y94.759 E2.99314
G1 X113.932 Y94.114 E3.00064
G1 X73.164 Y94.114 E3.45162
G1 X73.374 Y93.469 E3.45912
G1 X113.722 Y93.469 E3.90546
G1 X113.513 Y92.824 E3.91297
G1 X73.584 Y92.824 E4.35467
G1 X73.793 Y92.179 E4.36217
G1 X113.303 Y92.179 E4.79924
G1 X113.093 Y91.534 E4.80674
G1 X74.003 Y91.534 E5.23917
G1 X74.323 Y90.889 E5.24714
G1 X112.773 Y90.889 E5.67248
G1 X112.401 Y90.244 E5.68072
G1 X74.695 Y90.244 E6.09782
G1 X75.068 Y89.599 E6.10606
G1 X112.028 Y89.599 E6.51492
G1 X111.656 Y88.954 E6.52316
G1 X75.440 Y88.954 E6.92378
G1 X75.813 Y88.309 E6.93202
G1 X111.283 Y88.309 E7.32441
G1 X110.911 Y87.664 E7.33265
G1 X76.185 Y87.664 E7.71679
G1 X76.702 Y87.019 E7.72594
G1 X110.394 Y87.019 E8.09864
G1 X109.813 Y86.374 E8.10824
G1 X77.283 Y86.374 E8.46809
G1 X77.864 Y85.729 E8.47769
G1 X109.232 Y85.729 E8.82469
G1 X108.651 Y85.084 E8.83429
G1 X78.445 Y85.084 E9.16844
G1 X79.026 Y84.439 E9.17804
G1 X108.071 Y84.439 E9.49934
G1 X107.318 Y83.794 E9.51031
G1 X79.778 Y83.794 E9.81495
G1 X80.666 Y83.149 E9.82709
G1 X106.430 Y83.149 E10.11210
G1 X105.542 Y82.504 E10.12424
G1 X81.554 Y82.504 E10.38960
G1 X82.442 Y81.859 E10.40174
G1 X104.654 Y81.859 E10.64747
G1 X103.487 Y81.213 E10.66222
G1 X83.609 Y81.213 E10.88212
G1 X85.058 Y80.568 E10.89966
G1 X102.039 Y80.568 E11.08751
G1 X100.590 Y79.923 E11.10505
G1 X86.506 Y79.923 E11.26084
G1 X89.045 Y79.278 E11.28982
G1 X98.051 Y79.278 E11.38945
G1 F2400.000 E9.78945
G92 E0
G1 X118.648 Y100.000 F9000.000
G1 X114.522 Y96.694
G1 F2400.000 E1.60000
G1 X72.574 Y96.694 F1800.000 E2.06404
G1 X72.506 Y97.339 E2.07122
G1 X114.590 Y97.339 E2.53676
G1 X114.658 Y97.984 E2.54394
G1 X72.438 Y97.984 E3.01098
G1 F2400.000 E1.41098
G92 E0
G1 X118.648 Y100.000 F9000.000
G1 X95.777 Y121.205
G1 F2400.000 E1.60000
G1 X91.319 Y121.205 F1800.000 E1.64932
G1 X88.284 Y120.560 E1.68364
G1 X98.812 Y120.560 E1.80010
G1 X100.953 Y119.915 E1.82484
G1 X86.143 Y119.915 E1.98867
G1 X84.694 Y119.270 E2.00621
G1 X102.402 Y119.270 E2.20210
G1 X103.851 Y118.625 E2.21964
G1 X83.246 Y118.625 E2.44758
G1 X82.219 Y117.980 E2.46099
G1 X104.877 Y117.980 E2.71164
G1 X105.765 Y117.335 E2.72378
G1 X81.331 Y117.335 E2.99407
G1 X80.443 Y116.690 E3.00620
G1 X106.653 Y116.690 E3.29614
G1 X107.540 Y116.045 E3.30828
G1 X79.556 Y116.045 E3.61785
G1 X78.880 Y115.400 E3.62818
G1 X108.216 Y115.400 E3.95271
G1 X108.797 Y114.755 E3.96231
G1 X78.299 Y114.755 E4.29968
G1 X77.718 Y114.110 E4.30928
G1 X109.378 Y114.110 E4.65950
G1 X109.958 Y113.465 E4.66910
G1 X77.138 Y113.465 E5.03218
G1 X76.557 Y112.820 E5.04178
G1 X110.539 Y112.820 E5.41770
G1 X111.004 Y112.175 E5.42649
G1 X76.092 Y112.175 E5.81270
G1 X75.719 Y111.530 E5.82094
G1 X111.377 Y111.530 E6.21539
G1 X111.749 Y110.884 E6.22363
G1 X75.347 Y110.884 E6.62632
G1 X74.974 Y110.239 E6.63456
G1 X112.122 Y110.239 E7.04549
G1 X112.494 Y109.594 E7.05373
G1 X74.602 Y109.594 E7.47290
G1 X74.230 Y108.949 E7.48114
G1 X112.866 Y108.949 E7.90854
G1 X113.146 Y108.304 E7.91632
G1 X73.950 Y108.304 E8.34991
G1 X73.741 Y107.659 E8.35742
G1 X113.356 Y107.659 E8.79564
G1 X113.565 Y107.014 E8.80315
G1 X73.531 Y107.014 E9.24601
G1 X73.321 Y106.369 E9.25352
G1 X113.775 Y106.369 E9.70102
G1 X113.984 Y105.724 E9.70852
G1 X73.112 Y105.724 E10.16066
G1 X72.902 Y105.079 E10.16817
G1 X114.194 Y105.079 E10.62494
G1 X114.404 Y104.434 E10.63245
G1 X72.693 Y104.434 E11.09386
G1 X72.625 Y103.789 E11.10103
G1 X114.472 Y103.789 E11.56396
G1 X114.539 Y103.144 E11.57113
G1 X72.557 Y103.144 E12.03555
G1 X72.489 Y102.499 E12.04272
G1 X114.607 Y102.499 E12.50864
G1 X114.895 Y101.854 E12.51646
G1 X72.421 Y101.854 E12.98631
G1 X72.353 Y101.209 E12.99348
G1 X121.493 Y101.209 E13.53707
G1 X121.108 Y100.564 E13.54539
G1 X72.286 Y100.564 E14.08546
G1 X72.235 Y99.919 E14.09262
G1 X121.011 Y99.919 E14.63220
G1 X121.170 Y99.274 E14.63955
G1 X72.303 Y99.274 E15.18013
G1 X72.370 Y98.629 E15.18730
G1 X121.724 Y98.629 E15.73326
G1 F2400.000 E14.13326
G92 E0
G1 X122.724 Y99.460 F9000.000
G1 X123.724 Y98.629
G1 F2400.000 E1.60000
G1 X127.503 Y98.629 F1800.000 E1.64180
G1 X127.631 Y99.274 E1.64908
G1 X124.278 Y99.274 E1.68617
G1 X124.437 Y99.919 E1.69352
G1 X127.760 Y99.919 E1.73028
G1 X127.664 Y100.564 E1.73749
G1 X124.341 Y100.564 E1.77425
G1 X123.955 Y101.209 E1.78256
G1 X127.535 Y101.209 E1.82217
G1 X127.407 Y101.854 E1.82944
G1 X117.553 Y101.854 E1.93844
G1 X118.435 Y102.499 E1.95053
G1 X127.013 Y102.499 E2.04542
G1 X126.582 Y103.144 E2.05400
G1 X118.866 Y103.144 E2.13936
G1 X119.477 Y103.789 E2.14918
G1 X125.971 Y103.789 E2.22102
G1 X125.006 Y104.434 E2.23387
G1 X120.442 Y104.434 E2.28435
G1 F2400.000 E0.68435
G92 E0
G1 X122.066 Y103.417 F9000.000
G1 X118.648 Y100.000
G1 X117.968 Y97.984
G1 F2400.000 E1.60000
G1 X127.336 Y97.984 F1800.000 E1.70363
G1 X126.905 Y97.339 E1.71221
G1 X118.543 Y97.339 E1.80471
G1 X118.974 Y96.694 E1.81330
G1 X126.474 Y96.694 E1.89626
G1 X125.729 Y96.049 E1.90716
G1 X119.719 Y96.049 E1.97365
G1 X120.684 Y95.404 E1.98649
G1 X124.764 Y95.404 E2.03162
G1 F2400.000 E0.43162
G92 E0
G1 X122.724 Y95.925 F9000.000
G1 X123.012 Y99.304
G1 F2400.000 E1.60000
G1 X123.257 Y99.467 F1200.000 E1.60325
G1 X123.420 Y99.712 E1.60651
G1 X123.478 Y100.000 E1.60976
G1 X123.420 Y100.288 E1.61301
G1 X123.257 Y100.533 E1.61627
G1 X123.013 Y100.696 E1.61952
G1 X122.724 Y100.754 E1.62278
G1 X122.436 Y100.696 E1.62603
G1 X122.191 Y100.533 E1.62928
G1 X122.028 Y100.288 E1.63254
G1 X121.970 Y100.000 E1.63579
G1 X122.028 Y99.712 E1.63904
G1 X122.191 Y99.467 E1.64230
G1 X122.436 Y99.304 E1.64555
G1 X122.724 Y99.246 E1.64880
G1 X122.965 Y99.294 E1.65152
G1 X123.010 Y98.974 F9000.000
G1 X123.138 Y99.000 F1200.000 E1.65297
G1 X123.490 Y99.234 E1.65765
G1 X123.724 Y99.586 E1.66232
G1 X123.807 Y100.000 E1.66699
G1 X123.724 Y100.414 E1.67167
G1 X123.490 Y100.766 E1.67634
G1 X123.138 Y101.000 E1.68101
G1 X122.724 Y101.083 E1.68568
G1 X122.310 Y101.000 E1.69036
G1 X121.959 Y100.766 E1.69503
G1 X121.724 Y100.414 E1.69970
G1 X121.641 Y100.000 E1.70438
G1 X121.724 Y99.586 E1.70905
G1 X121.959 Y99.234 E1.71372
G1 X122.310 Y99.000 E1.71840
G1 X122.724 Y98.917 E1.72307
G1 X122.962 Y98.965 E1.72575
G1 X123.052 Y99.098 F9000.000
G1 X123.089 Y99.636
G1 X122.505 Y99.538 F3000.000 E1.73273
G1 X123.186 Y100.219 E1.74408
G1 X122.943 Y100.462 E1.74812
G1 X122.262 Y99.781 E1.75947
G1 X122.360 Y100.365 E1.76645
M106 S255
G1 F2400.000 E0.16645
G92 E0
G1 Z0.375 F9000.000
G1 X122.385 Y102.114
G1 F2400.000 E1.60000
G1 X122.385 Y104.824 F2021.023 E1.61998
G1 X119.885 Y103.872 E1.63971
G1 X119.885 Y96.128 E1.69683
G1 F2400.000 E0.09683
G92 E0
G1 X122.724 Y95.472 F9000.000
G1 X122.385 Y97.886
G1 F2400.000 E1.60000
G1 X122.385 Y95.176 F2021.023 E1.61998
G1 X124.885 Y95.674 E1.63878
G1 X124.885 Y99.895 E1.66991
G1 X124.885 Y100.105 F9000.000
G1 X124.885 Y104.326 F2021.023 E1.70104
G1 X127.385 Y101.158 E1.73080
G1 X127.385 Y98.842 E1.74789
G1 F2400.000 E0.14789
G92 E0
G1 X127.095 Y99.842 F9000.000
G1 X124.265 Y103.432
G1 X122.066 Y103.870
G1 X118.196 Y100.000
G1 X117.385 Y98.352
G1 F2400.000 E1.60000
G1 X117.385 Y101.648 F2021.023 E1.62431
G1 F2400.000 E0.02431
G92 E0
G1 X118.196 Y100.000 F9000.000
G1 X114.885 Y101.694
G1 F2400.000 E1.60000
G1 X114.885 Y98.306 F2021.023 E1.62499
G1 F2400.000 E0.02499
G92 E0
G1 X118.196 Y100.000 F9000.000
G1 X112.385 Y90.531
G1 F2400.000 E1.60000
G1 X112.385 Y109.469 F2021.023 E1.73966
G1 X109.885 Y113.311 E1.77347
G1 X109.885 Y86.689 E1.96980
G1 X107.385 Y84.037 E1.99668
G1 X107.385 Y115.963 E2.23213
G1 X104.885 Y117.779 E2.25492
G1 X104.885 Y82.220 E2.51716
G1 X102.385 Y80.895 E2.53802
G1 X102.385 Y119.105 E2.81982
G1 X99.885 Y120.171 E2.83986
G1 X99.885 Y79.829 E3.13737
G1 X97.385 Y79.298 E3.15622
G1 X97.385 Y120.702 E3.46157
G1 X94.885 Y121.047 E3.48018
G1 X94.885 Y78.953 E3.79062
G1 X92.385 Y78.953 E3.80906
G1 X92.385 Y121.047 E4.11950
G1 X89.885 Y120.739 E4.13807
G1 X89.885 Y79.261 E4.44396
G1 X87.385 Y79.792 E4.46281
G1 X87.385 Y120.208 E4.76087
G1 X84.885 Y119.182 E4.78080
G1 X84.885 Y80.818 E5.06373
G1 X82.385 Y82.094 E5.08443
G1 X82.385 Y117.906 E5.34853
G1 X79.885 Y116.089 E5.37132
G1 X79.885 Y83.911 E5.60862
G1 X77.385 Y86.496 E5.63515
G1 X77.385 Y113.504 E5.83432
G1 X74.885 Y109.769 E5.86747
G1 X74.885 Y90.231 E6.01155
G1 X72.385 Y100.001 E6.08593
G1 F2400.000 E4.48593
G92 E0
G1 X118.196 Y100.000 F9000.000
G1 X121.518 Y100.000
G1 F2400.000 E1.60000
G1 X121.609 Y99.538 F1347.349 E1.60347
G1 X121.871 Y99.147 E1.60694
G1 X122.262 Y98.885 E1.61042
G1 X122.724 Y98.794 E1.61389
G1 X123.186 Y98.885 E1.61736
G1 X123.577 Y99.147 E1.62083
G1 X123.839 Y99.538 E1.62430
G1 X123.931 Y100.000 E1.62777
G1 X123.839 Y100.462 E1.63124
G1 X123.577 Y100.853 E1.63472
G1 X123.186 Y101.115 E1.63819
G1 X122.724 Y101.206 E1.64166
G1 X122.262 Y101.115 E1.64513
G1 X121.871 Y100.853 E1.64860
G1 X121.609 Y100.462 E1.65207
G1 X121.527 Y100.047 E1.65519
G1 X121.189 Y100.000 F9000.000
G1 X121.306 Y99.412 F1347.349 E1.65961
G1 X121.638 Y98.914 E1.66403
G1 X122.137 Y98.582 E1.66844
G1 X122.724 Y98.465 E1.67286
G1 X123.312 Y98.582 E1.67728
G1 X123.810 Y98.914 E1.68170
G1 X124.142 Y99.412 E1.68611
G1 X124.259 Y100.000 E1.69053
G1 X124.142 Y100.588 E1.69495
G1 X123.810 Y101.086 E1.69937
G1 X123.312 Y101.418 E1.70379
G1 X122.724 Y101.535 E1.70820
G1 X122.137 Y101.418 E1.71262
G1 X121.638 Y101.086 E1.71704
