; generated by Slic3r 0.9.9 on 2013-12-06 at 23:41:18

; layer_height = 0.4
; perimeters = 3
; top_solid_layers = 3
; bottom_solid_layers = 3
; fill_density = 0.4
; perimeter_speed = 30
; infill_speed = 60
; travel_speed = 130
; nozzle_diameter = 0.5
; filament_diameter = 3
; extrusion_multiplier = 0.95
; perimeters extrusion width = 0.53mm
; infill extrusion width = 0.53mm
; solid infill extrusion width = 0.53mm
; top infill extrusion width = 0.53mm
; support material extrusion width = 0.53mm
; first layer extrusion width = 1.00mm

G21 ; set units to millimeters
M107
M104 S200 ; set temperature
G28 ; home all axes
G1 Z5 F5000 ; lift nozzle

M109 S200 ; wait for temperature to be reached
G90 ; use absolute coordinates
G92 E0
M82 ; use absolute distances for extrusion
G1 F1800.000 E-1.00000
G92 E0
G1 Z0.500 F7800.000
G1 X74.722 Y78.870
G1 F1800.000 E1.00000
G1 X75.282 Y78.380 F540.000 E1.04464
G1 X77.942 Y76.460 E1.24143
G1 X78.832 Y75.910 E1.30419
G1 X82.572 Y73.990 E1.55639
G1 X83.132 Y73.760 E1.59270
G1 X83.412 Y73.670 E1.61035
G1 X84.282 Y73.460 E1.66404
G1 X84.872 Y73.380 E1.69975
G1 X85.162 Y73.360 E1.71719
G1 X101.922 Y73.360 E2.72259
G1 X102.212 Y73.380 E2.74003
G1 X102.802 Y73.460 E2.77575
G1 X103.392 Y73.590 E2.81199
G1 X103.952 Y73.760 E2.84710
G1 X104.512 Y73.990 E2.88341
G1 X108.252 Y75.910 E3.13561
G1 X108.942 Y76.320 E3.18376
G1 X130.192 Y90.600 E4.71960
G1 X130.452 Y90.780 E4.73857
G1 X130.932 Y91.170 E4.77567
G1 X131.372 Y91.600 E4.81257
G1 X131.772 Y92.070 E4.84960
G1 X132.132 Y92.570 E4.88656
G1 X133.292 Y94.360 E5.01451
G1 X133.622 Y94.920 E5.05350
G1 X133.762 Y95.210 E5.07282
G1 X134.012 Y95.810 E5.11181
G1 X134.112 Y96.120 E5.13135
G1 X134.272 Y96.740 E5.16977
G1 X134.632 Y98.520 E5.27871
G1 X134.752 Y99.490 E5.33734
G1 X134.762 Y100.140 E5.37634
G1 X134.742 Y100.460 E5.39557
G1 X134.662 Y101.100 E5.43426
G1 X134.342 Y102.890 E5.54334
G1 X134.202 Y103.490 E5.58030
G1 X134.112 Y103.790 E5.59909
G1 X133.902 Y104.360 E5.63553
G1 X133.642 Y104.910 E5.67202
G1 X133.492 Y105.180 E5.69055
G1 X132.282 Y107.220 E5.83284
G1 X131.922 Y107.720 E5.86980
G1 X131.522 Y108.180 E5.90636
G1 X131.082 Y108.610 E5.94327
G1 X130.612 Y108.990 E5.97953
G1 X109.242 Y123.460 E7.52771
G1 X108.652 Y123.820 E7.56917
G1 X105.352 Y125.600 E7.79410
G1 X104.812 Y125.860 E7.83005
G1 X103.962 Y126.160 E7.88412
G1 X97.662 Y127.950 E8.27701
G1 X97.042 Y128.100 E8.31527
G1 X96.732 Y128.150 E8.33411
G1 X96.102 Y128.210 E8.37207
G1 X90.982 Y128.210 E8.67921
G1 X90.352 Y128.150 E8.71718
G1 X90.042 Y128.100 E8.73601
G1 X89.422 Y127.950 E8.77428
G1 X83.122 Y126.160 E9.16716
G1 X82.272 Y125.860 E9.22124
G1 X81.732 Y125.600 E9.25719
G1 X78.432 Y123.820 E9.48211
G1 X77.642 Y123.320 E9.53820
G1 X74.962 Y121.360 E9.73737
G1 X74.542 Y121.000 E9.77056
G1 X74.142 Y120.600 E9.80449
G1 X72.392 Y118.680 E9.96033
G1 X70.692 Y116.690 E10.11734
G1 X70.392 Y116.280 E10.14781
G1 X70.112 Y115.840 E10.17910
G1 X67.912 Y112.040 E10.44250
G1 X67.672 Y111.530 E10.47631
G1 X67.472 Y111.010 E10.50974
G1 X66.282 Y107.390 E10.73833
G1 X66.072 Y106.610 E10.78678
G1 X65.712 Y104.820 E10.89631
G1 X65.612 Y104.150 E10.93695
G1 X65.262 Y100.540 E11.15452
G1 X65.232 Y99.990 E11.18756
G1 X65.242 Y99.430 E11.22116
G1 X65.462 Y97.420 E11.34246
G1 X65.632 Y95.630 E11.45032
G1 X65.772 Y94.810 E11.50022
G1 X66.172 Y93.030 E11.60967
G1 X66.332 Y92.420 E11.64750
G1 X66.912 Y90.630 E11.76037
G1 X67.672 Y88.570 E11.89209
G1 X68.162 Y87.530 E11.96106
G1 X70.372 Y83.700 E12.22632
G1 X70.702 Y83.220 E12.26126
G1 X71.082 Y82.770 E12.29659
G1 X72.832 Y80.830 E12.45332
G1 X74.627 Y78.965 E12.60863
G1 F1800.000 E11.60863
G92 E0
G1 X101.631 Y80.258 F7800.000
G1 F1800.000 E1.00000
G1 X85.465 Y80.258 F1080.000 E1.96979
G1 X81.987 Y82.044 E2.20433
G1 X105.110 Y82.044 E3.59145
G1 X107.567 Y83.829 E3.77366
G1 X79.529 Y83.829 E5.45559
G1 X77.808 Y85.615 E5.60434
G1 X109.288 Y85.615 E7.49272
G1 X110.895 Y87.400 E7.63682
G1 X76.202 Y87.400 E9.71799
G1 X75.171 Y89.185 E9.84166
G1 X111.925 Y89.185 E12.04651
G1 X112.956 Y90.971 E12.17018
G1 X74.140 Y90.971 E14.49870
G1 X73.482 Y92.756 E14.61284
G1 X113.614 Y92.756 E17.02032
G1 X114.194 Y94.542 E17.13293
G1 X72.902 Y94.542 E19.61001
G1 X72.494 Y96.327 E19.71987
G1 X114.602 Y96.327 E22.24586
G1 X115.237 Y98.112 E22.35954
G1 X72.306 Y98.112 E24.93490
G1 X72.119 Y99.898 E25.04259
G1 X120.363 Y99.898 E27.93665
G1 X121.039 Y101.683 E28.05118
G1 X72.285 Y101.683 E30.97587
G1 X72.473 Y103.469 E31.08356
G1 X114.624 Y103.469 E33.61213
G1 X114.261 Y105.254 E33.72142
G1 X72.835 Y105.254 E36.20648
G1 X73.415 Y107.039 E36.31909
G1 X113.681 Y107.039 E38.73454
G1 X113.074 Y108.825 E38.84765
G1 X74.022 Y108.825 E41.19034
G1 X75.053 Y110.610 E41.31401
G1 X112.043 Y110.610 E43.53303
G1 X111.013 Y112.396 E43.65670
G1 X76.083 Y112.396 E45.75204
G1 X77.624 Y114.181 E45.89352
G1 X109.472 Y114.181 E47.80399
G1 X107.848 Y115.966 E47.94875
G1 X79.248 Y115.966 E49.66446
G1 X81.705 Y117.752 E49.84667
G1 X105.391 Y117.752 E51.26756
G1 X102.091 Y119.537 E51.49266
G1 X85.005 Y119.537 E52.51758
G1 X91.306 Y121.322 E52.91045
G1 X95.790 Y121.322 E53.17938
G1 F1800.000 E52.17938
G92 E0
G1 X118.317 Y100.000 F7800.000
G1 X122.066 Y103.749
G1 X118.941 Y103.469
G1 F1800.000 E1.00000
G1 X126.507 Y103.469 F1080.000 E1.45385
G1 X127.561 Y101.683 E1.57822
G1 X124.409 Y101.683 E1.76730
G1 X125.086 Y99.898 E1.88184
G1 X127.875 Y99.898 E2.04919
G1 X127.520 Y98.112 E2.15840
G1 X124.104 Y98.112 E2.36334
G1 F1800.000 E1.36334
G92 E0
G1 X122.724 Y99.128 F7800.000
G1 X121.344 Y98.112
G1 F1800.000 E1.00000
G1 X117.211 Y98.112 F1080.000 E1.24797
G1 F1800.000 E0.24797
G92 E0
G1 X118.317 Y100.000 F7800.000
G1 X122.724 Y95.593
G1 X119.091 Y96.327
G1 F1800.000 E1.00000
G1 X126.357 Y96.327 F1080.000 E1.43585
G1 F1800.000 E0.43585
G92 E0
G1 X126.992 Y99.860 F7800.000
G1 X123.519 Y99.205
G1 F1800.000 E1.00000
G1 X123.762 Y99.570 F540.000 E1.02631
G1 X123.848 Y100.000 E1.05261
G1 X123.762 Y100.430 E1.07892
G1 X123.519 Y100.795 E1.10523
G1 X123.154 Y101.038 E1.13153
G1 X122.724 Y101.124 E1.15784
G1 X122.294 Y101.038 E1.18414
G1 X121.929 Y100.795 E1.21045
G1 X121.686 Y100.430 E1.23676
G1 X121.600 Y100.000 E1.26306
G1 X121.686 Y99.570 E1.28937
G1 X121.929 Y99.205 E1.31568
G1 X122.294 Y98.962 E1.34199
G1 X122.724 Y98.876 E1.36829
G1 X123.154 Y98.962 E1.39460
G1 X123.407 Y99.131 E1.41287
G1 X122.612 Y100.113 F7800.000
G1 X122.611 Y100.112 F360.000 E1.41293
M106 S255
G1 F1800.000 E0.41293
G92 E0
G1 Z0.900 F7800.000
G1 X121.222 Y101.502
G1 X119.872 Y101.855
G1 F1800.000 E1.00000
G1 X119.872 Y103.879 F1448.556 E1.05656
G1 X122.372 Y104.834 E1.13131
G1 X122.372 Y103.398 E1.17142
G1 F1800.000 E0.17142
G92 E0
G1 X122.775 Y102.145 F7800.000
G1 X123.422 Y102.017
G1 X124.872 Y102.654
G1 F1800.000 E1.00000
G1 X124.872 Y104.349 F1448.556 E1.04737
G1 X127.372 Y101.287 E1.15781
G1 X127.372 Y98.713 E1.22971
G1 F1800.000 E0.22971
G92 E0
G1 X127.649 Y100.229 F7800.000
G1 X124.872 Y97.344
G1 F1800.000 E1.00000
G1 X124.872 Y95.651 F1448.556 E1.04731
G1 X122.372 Y95.166 E1.11845
G1 X122.372 Y96.602 E1.15855
G1 F1800.000 E0.15855
G92 E0
G1 X122.724 Y97.876 F7800.000
G1 X119.872 Y96.121
G1 F1800.000 E1.00000
G1 X119.872 Y98.145 F1448.556 E1.05656
G1 F1800.000 E0.05656
G92 E0
G1 X121.222 Y98.498 F7800.000
G1 X117.372 Y98.342
G1 F1800.000 E1.00000
G1 X117.372 Y101.658 F1448.556 E1.09264
G1 X114.872 Y101.710 E1.16249
G1 X114.872 Y98.290 E1.25805
G1 X112.372 Y90.484 E1.48701
G1 X112.372 Y109.516 E2.01867
G1 X109.872 Y113.344 E2.14639
G1 X109.872 Y86.656 E2.89193
G1 X107.372 Y84.012 E2.99358
G1 X107.372 Y115.988 E3.88682
G1 X104.872 Y117.804 E3.97315
G1 X104.872 Y82.196 E4.96788
G1 X102.372 Y80.876 E5.04686
G1 X102.372 Y119.124 E6.11535
G1 X99.872 Y120.186 E6.19122
G1 X99.872 Y79.814 E7.31904
G1 X97.372 Y79.282 E7.39044
G1 X97.372 Y120.718 E8.54794
G1 X94.872 Y121.060 E8.61843
G1 X94.872 Y78.940 E9.79506
G1 X92.372 Y78.940 E9.86489
G1 X92.372 Y121.060 E11.04152
G1 X89.872 Y120.749 E11.11189
G1 X89.872 Y79.251 E12.27116
G1 X87.372 Y79.782 E12.34255
G1 X87.372 Y120.218 E13.47213
G1 X84.872 Y119.190 E13.54763
G1 X84.872 Y80.810 E14.61980
G1 X82.372 Y82.088 E14.69824
G1 X82.372 Y117.912 E15.69898
G1 X79.872 Y116.095 E15.78531
G1 X79.872 Y83.905 E16.68456
G1 X77.372 Y86.492 E16.78506
G1 X77.372 Y113.508 E17.53978
G1 X74.872 Y109.772 E17.66536
G1 X74.872 Y90.228 E18.21134
G1 X72.372 Y100.001 E18.49315
G1 F1800.000 E17.49315
G92 E0
G1 X117.894 Y100.000 F7800.000
G1 X121.383 Y100.000
G1 F1800.000 E1.00000
G1 X121.485 Y99.487 F724.278 E1.01461
G1 X121.776 Y99.052 E1.02923
G1 X122.211 Y98.761 E1.04385
G1 X122.724 Y98.659 E1.05846
G1 X123.237 Y98.761 E1.07307
G1 X123.672 Y99.052 E1.08769
G1 X123.963 Y99.487 E1.10231
G1 X124.065 Y100.000 E1.11692
G1 X123.963 Y100.513 E1.13153
G1 X123.672 Y100.948 E1.14615
G1 X123.237 Y101.239 E1.16077
G1 X122.724 Y101.341 E1.17538
G1 X122.211 Y101.239 E1.18999
G1 X121.776 Y100.948 E1.20461
G1 X121.485 Y100.513 E1.21923
G1 X121.398 Y100.076 E1.23166
G1 X120.853 Y100.000 F7800.000
G1 X120.996 Y99.284 F724.278 E1.25205
G1 X121.401 Y98.677 E1.27244
G1 X122.008 Y98.272 E1.29283
G1 X122.724 Y98.129 E1.31322
G1 X123.440 Y98.272 E1.33361
G1 X124.047 Y98.677 E1.35400
G1 X124.452 Y99.284 E1.37439
G1 X124.595 Y100.000 E1.39478
G1 X124.452 Y100.716 E1.41517
G1 X124.047 Y101.323 E1.43556
G1 X123.440 Y101.728 E1.45595
G1 X122.724 Y101.871 E1.47634
G1 X122.008 Y101.728 E1.49673
G1 X121.401 Y101.323 E1.51712
G1 X120.996 Y100.716 E1.53751
G1 X120.869 Y100.076 E1.55572
G1 X120.324 Y100.000 F7800.000
G1 X120.506 Y99.081 F724.278 E1.58189
G1 X121.027 Y98.303 E1.60805
G1 X121.805 Y97.782 E1.63422
G1 X122.724 Y97.600 E1.66038
G1 X123.643 Y97.782 E1.68654
G1 X124.421 Y98.303 E1.71271
G1 X124.942 Y99.081 E1.73887
G1 X125.125 Y100.000 E1.76504
G1 X124.942 Y100.919 E1.79120
G1 X124.421 Y101.697 E1.81737
G1 X123.643 Y102.218 E1.84353
G1 X122.724 Y102.400 E1.86970
G1 X121.805 Y102.218 E1.89586
G1 X121.027 Y101.697 E1.92203
G1 X120.506 Y100.919 E1.94819
G1 X120.339 Y100.076 E1.97218
G1 X120.790 Y99.770 F7800.000
G1 X122.048 Y99.323
G1 X121.867 Y100.406 F1448.556 E2.00983
G1 X123.130 Y99.143 E2.07110
G1 X123.581 Y99.594 E2.09297
G1 X122.318 Y100.857 E2.15424
G1 X123.401 Y100.676 E2.19190
G1 F1800.000 E1.19190
G92 E0
G1 Z1.300 F7800.000
G1 X124.551 Y101.842
G1 X124.872 Y103.205
G1 F1800.000 E1.00000
G1 X124.872 Y104.349 F1491.699 E1.03196
G1 X127.372 Y101.287 E1.14240
G1 X127.372 Y98.713 E1.21430
G1 F1800.000 E0.21430
G92 E0
G1 X125.314 Y100.000 F7800.000
G1 X124.555 Y98.169
G1 X124.872 Y96.795
G1 F1800.000 E1.00000
G1 X124.872 Y95.651 F1491.699 E1.03196
G1 X122.372 Y95.166 E1.10310
G1 X122.372 Y96.136 E1.13019
G1 F1800.000 E0.13019
G92 E0
G1 X122.724 Y97.410 F7800.000
G1 X120.893 Y101.831
G1 X120.893 Y98.169
G1 X119.872 Y96.121
G1 F1800.000 E1.00000
G1 X119.872 Y97.323 F1491.699 E1.03358
G1 F1800.000 E0.03358
G92 E0
G1 X120.893 Y98.169 F7800.000
G1 X117.372 Y98.342
G1 F1800.000 E1.00000
G1 X117.372 Y101.658 F1491.699 E1.09264
G1 X114.872 Y101.710 E1.16249
G1 X114.872 Y98.290 E1.25805
G1 X112.372 Y90.484 E1.48701
G1 X112.372 Y109.516 E2.01867
G1 X109.872 Y113.344 E2.14639
G1 X109.872 Y86.656 E2.89193
G1 X107.372 Y84.012 E2.99358
G1 X107.372 Y115.988 E3.88682
G1 X104.872 Y117.804 E3.97315
G1 X104.872 Y82.196 E4.96788
G1 X102.372 Y80.876 E5.04686
G1 X102.372 Y119.124 E6.11535
G1 X99.872 Y120.186 E6.19122
G1 X99.872 Y79.814 E7.31904
G1 X97.372 Y79.282 E7.39044
G1 X97.372 Y120.718 E8.54794
G1 X94.872 Y121.060 E8.61843
G1 X94.872 Y78.940 E9.79506
G1 X92.372 Y78.940 E9.86489
G1 X92.372 Y121.060 E11.04152
G1 X89.872 Y120.749 E11.11189
G1 X89.872 Y79.251 E12.27116
G1 X87.372 Y79.782 E12.34255
G1 X87.372 Y120.218 E13.47213
G1 X84.872 Y119.190 E13.54763
G1 X84.872 Y80.810 E14.61980
G1 X82.372 Y82.088 E14.69824
G1 X82.372 Y117.912 E15.69898
G1 X79.872 Y116.095 E15.78531
G1 X79.872 Y83.905 E16.68456
G1 X77.372 Y86.492 E16.78506
G1 X77.372 Y113.508 E17.53978
G1 X74.872 Y109.772 E17.66536
G1 X74.872 Y90.228 E18.21134
G1 X72.372 Y100.001 E18.49315
G1 F1800.000 E17.49315
G92 E0
G1 X117.428 Y100.000 F7800.000
G1 X119.872 Y102.677
G1 F1800.000 E1.00000
G1 X119.872 Y103.879 F1491.699 E1.03358
G1 X122.372 Y104.834 E1.10834
G1 X122.372 Y103.864 E1.13543
G1 F1800.000 E0.13543
G92 E0
G1 X122.775 Y102.611 F7800.000
G1 X122.976 Y102.571
G1 X122.724 Y101.807
G1 F1800.000 E1.00000
G1 X122.033 Y101.669 F745.850 E1.01969
G1 X121.447 Y101.278 E1.03939
G1 X121.055 Y100.691 E1.05908
G1 X120.917 Y100.000 E1.07877
G1 X121.055 Y99.309 E1.09846
G1 X121.447 Y98.722 E1.11816
G1 X122.033 Y98.331 E1.13785
G1 X122.724 Y98.193 E1.15754
G1 X123.415 Y98.331 E1.17723
G1 X124.002 Y98.722 E1.19693
G1 X124.393 Y99.309 E1.21662
G1 X124.531 Y100.000 E1.23631
G1 X124.393 Y100.691 E1.25601
G1 X124.002 Y101.278 E1.27570
G1 X123.415 Y101.669 E1.29539
G1 X122.800 Y101.792 E1.31291
G1 X122.980 Y102.286 F7800.000
G1 X122.724 Y102.337 F745.850 E1.32019
G1 X121.830 Y102.159 E1.34565
G1 X121.072 Y101.652 E1.37112
G1 X120.565 Y100.894 E1.39659
G1 X120.387 Y100.000 E1.42206
G1 X120.565 Y99.106 E1.44752
G1 X121.072 Y98.348 E1.47299
G1 X121.830 Y97.841 E1.49846
G1 X122.724 Y97.663 E1.52393
G1 X123.618 Y97.841 E1.54939
G1 X124.376 Y98.348 E1.57486
G1 X124.883 Y99.106 E1.60033
G1 X125.061 Y100.000 E1.62580
G1 X124.883 Y100.894 E1.65127
G1 X124.376 Y101.652 E1.67673
G1 X123.618 Y102.159 E1.70220
G1 X123.056 Y102.271 E1.71821
G1 X123.081 Y102.795 F7800.000
G1 X122.724 Y102.866 F745.850 E1.72838
G1 X121.627 Y102.648 E1.75962
G1 X120.697 Y102.027 E1.79086
G1 X120.076 Y101.097 E1.82211
G1 X119.858 Y100.000 E1.85335
G1 X120.076 Y98.903 E1.88459
G1 X120.697 Y97.973 E1.91583
G1 X121.627 Y97.352 E1.94708
G1 X122.724 Y97.134 E1.97832
G1 X123.821 Y97.352 E2.00956
G1 X124.751 Y97.973 E2.04080
G1 X125.372 Y98.903 E2.07205
G1 X125.590 Y100.000 E2.10329
G1 X125.372 Y101.097 E2.13453
G1 X124.751 Y102.027 E2.16577
G1 X123.821 Y102.648 E2.19702
G1 X123.157 Y102.780 E2.21592
G1 X122.841 Y102.522 F7800.000
G1 X121.718 Y101.006
G1 X121.337 Y99.820 F1491.699 E2.25403
G1 X122.904 Y101.387 E2.32182
G1 X123.489 Y101.167 E2.34093
G1 X121.557 Y99.235 E2.42452
G1 X121.959 Y98.833 E2.44192
G1 X123.891 Y100.765 E2.52551
G1 X124.111 Y100.180 E2.54463
G1 X122.544 Y98.613 E2.61241
G1 X123.730 Y98.994 E2.65053
G1 F1800.000 E1.65053
G92 E0
G1 Z1.700 F7800.000
G1 X124.838 Y97.886
G1 X124.872 Y96.323
G1 F1800.000 E1.00000
G1 X124.872 Y95.651 F1536.213 E1.01878
G1 X122.372 Y95.166 E1.08992
G1 X122.372 Y95.736 E1.10583
G1 F1800.000 E0.10583
G92 E0
G1 X122.724 Y97.010 F7800.000
G1 X120.610 Y97.886
G1 X119.872 Y96.121
G1 F1800.000 E1.00000
G1 X119.872 Y96.793 F1536.213 E1.01878
G1 F1800.000 E0.01878
G92 E0
G1 X120.610 Y97.886 F7800.000
G1 X117.372 Y98.342
G1 F1800.000 E1.00000
G1 X117.372 Y101.658 F1536.213 E1.09264
G1 X114.872 Y101.710 E1.16249
G1 X114.872 Y98.290 E1.25805
G1 X112.372 Y90.484 E1.48701
G1 X112.372 Y109.516 E2.01867
G1 X109.872 Y113.344 E2.14639
G1 X109.872 Y86.656 E2.89193
G1 X107.372 Y84.012 E2.99358
G1 X107.372 Y115.988 E3.88682
G1 X104.872 Y117.804 E3.97315
G1 X104.872 Y82.196 E4.96788
G1 X102.372 Y80.876 E5.04686
G1 X102.372 Y119.124 E6.11535
G1 X99.872 Y120.186 E6.19122
G1 X99.872 Y79.814 E7.31904
G1 X97.372 Y79.282 E7.39044
G1 X97.372 Y120.718 E8.54794
G1 X94.872 Y121.060 E8.61843
G1 X94.872 Y78.940 E9.79506
G1 X92.372 Y78.940 E9.86489
G1 X92.372 Y121.060 E11.04152
G1 X89.872 Y120.749 E11.11189
G1 X89.872 Y79.251 E12.27116
G1 X87.372 Y79.782 E12.34255
G1 X87.372 Y120.218 E13.47213
G1 X84.872 Y119.190 E13.54763
G1 X84.872 Y80.810 E14.61980
G1 X82.372 Y82.088 E14.69824
G1 X82.372 Y117.912 E15.69898
G1 X79.872 Y116.095 E15.78531
G1 X79.872 Y83.905 E16.68456
G1 X77.372 Y86.492 E16.78506
G1 X77.372 Y113.508 E17.53978
G1 X74.872 Y109.772 E17.66536
G1 X74.872 Y90.228 E18.21134
G1 X72.372 Y100.001 E18.49315
G1 F1800.000 E17.49315
G92 E0
G1 X117.028 Y100.000 F7800.000
G1 X119.872 Y103.207
G1 F1800.000 E1.00000
G1 X119.872 Y103.879 F1536.213 E1.01878
G1 X122.372 Y104.834 E1.09354
G1 X122.372 Y104.264 E1.10946
G1 F1800.000 E0.10946
G92 E0
G1 X122.775 Y103.011 F7800.000
G1 X124.828 Y102.139
G1 X124.872 Y103.677
